src/assets/heart.svg

<svg width="174" height="130" viewBox="0 0 174 130" fill="none" xmlns="http://www.w3.org/2000/svg">
<g filter="url(#filter0_d_340_59965)">
<path fill-rule="evenodd" clip-rule="evenodd" d="M68.3309 0.658719C60.7019 2.85396 55.2665 9.29715 53.0065 18.8253C52.3065 21.7753 52.2435 22.9337 52.4137 29.7082C52.6144 37.6962 52.9084 39.6567 54.994 46.91C58.1982 58.0519 65.6129 71.0414 73.5804 79.4698C75.0132 80.9857 76.1181 82.2878 76.0358 82.3633C75.6886 82.6832 64.8887 83.1851 64.3212 82.908C63.9363 82.72 63.0797 80.6339 62.0744 77.4379C60.5385 72.5535 59.8808 71.4125 59.0706 72.2264C58.7408 72.5577 57.6906 80.9467 55.4721 100.975C54.9408 105.77 54.4133 109.95 54.2993 110.262C53.8967 111.367 53.459 108.467 50.8084 87.1385C45.0669 40.9426 45.6624 44.9854 44.6235 45.134C43.8892 45.239 43.7858 45.5609 43.5485 48.4726C43.3073 51.4298 42.379 69.5698 41.7794 83.0396C41.6432 86.1018 41.4228 88.7163 41.29 88.8497C41.1571 88.9831 40.3322 88.0331 39.4572 86.7382L37.8658 84.3842L31.027 84.6453C27.2659 84.7886 21.4716 85.0657 18.1509 85.261C14.8301 85.4558 10.6162 85.6169 8.78639 85.6188C5.58074 85.6222 4 86.0032 4 86.7727C4 87.2792 12.1966 87.2106 25.0629 86.5961C30.9402 86.3152 36.0726 86.1707 36.4689 86.275C36.8685 86.38 37.9304 87.7534 38.8538 89.3599C39.7696 90.9528 40.8824 92.5859 41.3273 92.9888C42.9669 94.4741 43.142 93.6139 43.79 80.8837C44.119 74.4205 44.4964 67.0425 44.6288 64.4886C44.7613 61.9344 44.9903 59.8449 45.1379 59.8449C45.2858 59.8449 45.5179 60.655 45.6533 61.6455C45.9115 63.5288 50.5069 100.009 52.1359 113.105C52.6544 117.275 53.1699 120.985 53.2816 121.35C53.5118 122.103 54.3861 122.233 54.791 121.575C54.9393 121.334 55.7914 114.638 56.6846 106.696C58.4386 91.0999 59.3702 82.9543 59.6917 80.4099C59.8034 79.524 60.0476 78.7988 60.234 78.7988C60.4204 78.7988 60.9231 79.9372 61.351 81.3284C61.7785 82.7192 62.3298 84.1014 62.5755 84.3989C63.031 84.9497 65.4159 84.9243 76.5354 84.2484L80.2037 84.0259L78.7422 82.2651C72.952 75.2901 65.283 61.8821 61.9627 52.9294C60.2691 48.363 58.9231 42.8615 58.3186 38.035C57.6876 33.0017 58.0453 25.2378 59.0744 21.6282C62.8031 8.54809 72.983 2.16025 82.7686 6.76036C86.2437 8.39418 90.7663 13.0413 92.9451 17.2172C95.2029 21.544 97.1217 27.6089 97.8187 32.6226C98.4164 36.9202 98.3715 38.5309 97.5062 43.8376C97.0795 46.4555 97.0972 46.6356 97.8553 47.3968C98.2942 47.838 98.8972 48.1049 99.1945 47.9904C99.4923 47.8755 100.438 46.3592 101.296 44.6208C104.838 37.4426 114.435 29.4137 123.811 25.7832C132.418 22.4508 143.751 21.3867 150.603 23.2677C161.654 26.3022 165.445 33.0524 161.015 41.805C157.533 48.6822 151.664 54.8434 143.354 60.3445C136.002 65.2115 131.523 67.4644 112.383 75.9227C94.0282 84.0346 86.6724 89.0741 81.775 96.8937C79.4264 100.644 77.7388 107.29 78.6848 109.066C78.9245 109.515 79.2479 109.883 79.4041 109.883C79.5599 109.883 80.292 109.073 81.0305 108.083C85.149 102.561 91.6391 96.8543 98.2345 92.9547C102.837 90.2337 105.961 88.8209 115.697 85.0589C138.52 76.24 151.195 69.0451 159.872 59.9829C164.956 54.6735 167.948 49.7326 169.303 44.4111C170.237 40.7405 170.233 37.6124 169.288 33.8997C168.322 30.1066 166.682 27.2442 163.832 24.3742C158.226 18.729 149.93 15.8196 141.001 16.3662C128.209 17.149 116.471 22.6502 105.241 33.1249C101.293 36.8068 101.566 36.8967 101.205 31.7931C100.953 28.2086 99.5285 22.5308 97.8372 18.3632C94.3485 9.76682 86.7739 2.55221 79.0939 0.511257C76.3184 -0.226428 71.1607 -0.15592 68.3309 0.658719Z" fill="#E1017D"/>
</g>
<defs>
<filter id="filter0_d_340_59965" x="0" y="0" width="174" height="130" filterUnits="userSpaceOnUse" color-interpolation-filters="sRGB">
<feFlood flood-opacity="0" result="BackgroundImageFix"/>
<feColorMatrix in="SourceAlpha" type="matrix" values="0 0 0 0 0 0 0 0 0 0 0 0 0 0 0 0 0 0 127 0" result="hardAlpha"/>
<feOffset dy="4"/>
<feGaussianBlur stdDeviation="2"/>
<feComposite in2="hardAlpha" operator="out"/>
<feColorMatrix type="matrix" values="0 0 0 0 0 0 0 0 0 0 0 0 0 0 0 0 0 0 0.86 0"/>
<feBlend mode="normal" in2="BackgroundImageFix" result="effect1_dropShadow_340_59965"/>
<feBlend mode="normal" in="SourceGraphic" in2="effect1_dropShadow_340_59965" result="shape"/>
</filter>
</defs>
</svg>

<svg xmlns="http://www.w3.org/2000/svg" width="174" height="130" fill="none" viewBox="0 0 174 130"><g filter="url(#a)"><path fill="#e1017d" fill-rule="evenodd" d="M68.33.659c-7.628 2.195-13.063 8.638-15.323 18.166-.7 2.95-.764 4.109-.593 10.883.2 7.988.494 9.949 2.58 17.202 3.204 11.142 10.619 24.131 18.586 32.56 1.433 1.516 2.538 2.818 2.456 2.893-.347.32-11.147.822-11.715.545-.385-.188-1.241-2.274-2.247-5.47-1.535-4.885-2.193-6.026-3.003-5.212-.33.332-1.38 8.72-3.599 28.749-.531 4.795-1.059 8.975-1.173 9.287-.402 1.105-.84-1.795-3.49-23.124-5.742-46.195-5.147-42.153-6.185-42.004-.735.105-.838.427-1.076 3.339-.24 2.957-1.169 21.097-1.769 34.567-.136 3.062-.356 5.676-.489 5.81s-.958-.817-1.833-2.112l-1.591-2.354-6.839.261c-3.761.144-9.555.42-12.876.616-3.32.195-7.535.356-9.365.358C5.581 85.622 4 86.003 4 86.773c0 .506 8.197.438 21.063-.177 5.877-.28 11.01-.425 11.406-.321.4.105 1.461 1.478 2.385 3.085.916 1.593 2.028 3.226 2.473 3.629 1.64 1.485 1.815.625 2.463-12.105.329-6.463.706-13.841.839-16.395.132-2.555.361-4.644.509-4.644s.38.81.515 1.8c.258 1.884 4.854 38.364 6.483 51.46.518 4.17 1.034 7.88 1.146 8.245.23.753 1.104.883 1.509.225.148-.241 1-6.937 1.894-14.879C58.439 91.1 59.37 82.954 59.692 80.41c.111-.886.356-1.611.542-1.611s.69 1.138 1.117 2.53c.428 1.39.979 2.772 1.224 3.07.456.55 2.84.525 13.96-.15l3.669-.223-1.462-1.76c-5.79-6.976-13.459-20.384-16.78-29.337-1.693-4.566-3.039-10.068-3.643-14.894-.631-5.033-.274-12.797.755-16.407C62.804 8.548 72.983 2.16 82.77 6.76c3.475 1.634 7.997 6.281 10.176 10.457 2.258 4.327 4.177 10.392 4.874 15.406.597 4.297.552 5.908-.313 11.215-.427 2.617-.409 2.798.35 3.559.438.441 1.041.708 1.339.593.297-.114 1.243-1.63 2.101-3.37 3.542-7.177 13.139-15.206 22.515-18.837 8.607-3.332 19.94-4.396 26.792-2.515 11.051 3.034 14.842 9.784 10.412 18.537-3.482 6.877-9.351 13.038-17.661 18.54-7.352 4.867-11.831 7.12-30.971 15.578-18.355 8.112-25.71 13.151-30.608 20.97-2.349 3.751-4.036 10.397-3.09 12.173.24.449.563.817.72.817.155 0 .887-.81 1.626-1.8 4.118-5.522 10.608-11.229 17.203-15.128 4.603-2.721 7.727-4.134 17.463-7.896 22.823-8.819 35.498-16.014 44.175-25.076 5.084-5.31 8.076-10.25 9.431-15.572.934-3.67.93-6.799-.015-10.511-.966-3.793-2.606-6.656-5.456-9.526-5.606-5.645-13.902-8.554-22.831-8.008-12.792.783-24.53 6.284-35.76 16.759-3.948 3.682-3.675 3.772-4.036-1.332-.252-3.584-1.677-9.262-3.368-13.43C94.348 9.767 86.774 2.553 79.094.511 76.318-.226 71.16-.156 68.33.66" clip-rule="evenodd"/></g><defs><filter id="a" width="174" height="130" x="0" y="0" color-interpolation-filters="sRGB" filterUnits="userSpaceOnUse"><feFlood flood-opacity="0" result="BackgroundImageFix"/><feColorMatrix in="SourceAlpha" result="hardAlpha" values="0 0 0 0 0 0 0 0 0 0 0 0 0 0 0 0 0 0 127 0"/><feOffset dy="4"/><feGaussianBlur stdDeviation="2"/><feComposite in2="hardAlpha" operator="out"/><feColorMatrix values="0 0 0 0 0 0 0 0 0 0 0 0 0 0 0 0 0 0 0.86 0"/><feBlend in2="BackgroundImageFix" result="effect1_dropShadow_340_59965"/><feBlend in="SourceGraphic" in2="effect1_dropShadow_340_59965" result="shape"/></filter></defs></svg>
